!! 00000] TT[WS
!!!OTL: Mudanhua chuanzaolin
!!!ARE: Asia, China, Shanxi LInxian
!! Ethnic Group: Han
!! WI, 184
!!!SCT: J0218
!!!YEM: Copyright 1995, estate of Helmut Schaffrath.
**kern
*ICvox
*Ivox
!! Mixed meters:  3/8; 2/4
*M2/4
*k[]
*C:
{8cc
8cc
8dd
=1
8gg
8dd
8cc
8dd
=2
*M3/8
8gg
8ee
8gg
=3
4cc
8a}
=4
{8cc
8cc
16cc
16dd
=5
*M2/4
8gg
8b
8dd
8dd
=6
8cc
8b
8a
8g
=7
2d}
=8
{8g
16g
16g
8cc
16cc
16cc
=9
8dd
8gg
8ff
8ee
=10
8gg
16dd
16ee
8dd
16cc
16dd
=11
8cc
8e
4g}
=12
{8r
8cc
8cc
16cc
16dd
=13
8cc
8b
8a
8g
=14
8cc
16cc
16dd
8cc
8b
=15
8a
8g
4d}
==
!!!AGN: Xiaodiao. Fengsuge, Qingge
!!!ONB: ESAC (Essen Associative Code) Database: CHINA
!!!AMT: irregular
!!!AIN: vox
!!!EED: Helmut Schaffrath
!!!EEV: 1.0
*-
